Sardi Mono Papirus Dark/16x16/actions/kr_combine.svg

<?xml version="1.0" encoding="UTF-8" standalone="no"?>
<!-- Created with Inkscape (http://www.inkscape.org/) -->
<svg id="svg3049" xmlns:rdf="http://www.w3.org/1999/02/22-rdf-syntax-ns#" xmlns="http://www.w3.org/2000/svg" height="16" width="16" version="1.1" xmlns:cc="http://creativecommons.org/ns#" xmlns:dc="http://purl.org/dc/elements/1.1/">
 <defs id="defs3051">
  <style id="current-color-scheme" type="text/css">.ColorScheme-Text {
        color:#4d4d4d;
      }
      .ColorScheme-Background {
        color:#eff0f1;
      }
      .ColorScheme-Highlight {
        color:#3daee9;
      }
      .ColorScheme-ViewText {
        color:#31363b;
      }
      .ColorScheme-ViewBackground {
        color:#fcfcfc;
      }
      .ColorScheme-ViewHover {
        color:#93cee9;
      }
      .ColorScheme-ViewFocus{
        color:#3daee9;
      }
      .ColorScheme-ButtonText {
        color:#31363b;
      }
      .ColorScheme-ButtonBackground {
        color:#eff0f1;
      }
      .ColorScheme-ButtonHover {
        color:#93cee9;
      }
      .ColorScheme-ButtonFocus{
        color:#3daee9;
      }</style>
 </defs>
 <metadata id="metadata3054">
  <rdf:RDF>
   <cc:Work rdf:about="">
    <dc:format>image/svg+xml</dc:format>
    <dc:type rdf:resource="http://purl.org/dc/dcmitype/StillImage"/>
    <dc:title/>
   </cc:Work>
  </rdf:RDF>
 </metadata>
 <g id="layer1" transform="translate(-421.71 -531.79)">
  <path id="path4141" opacity=".72" style="color-rendering:auto;text-decoration-color:#ffffff;color:#4d4d4d;isolation:auto;mix-blend-mode:normal;shape-rendering:auto;solid-color:#ffffff;block-progression:tb;text-decoration-line:none;text-decoration-style:solid;image-rendering:auto;white-space:normal;text-indent:0;text-transform:none" d="m2 2a1.0001 1.0001 0 0 0 -1 1v1a1.0001 1.0001 0 0 0 1 1h3v6h-3a1.0001 1.0001 0 0 0 -1 1v1a1.0001 1.0001 0 0 0 1 1h4 1a1.0001 1.0001 0 0 0 1 -1v-3h2v2l5-4-5-4v2h-2v-3a1.0001 1.0001 0 0 0 -1 -1h-1-4z" transform="translate(421.71 531.79)" fill="#fff"/>
 </g>
</svg>

<?xml version="1.0" encoding="UTF-8" standalone="no"?>
<svg xmlns="http://www.w3.org/2000/svg" width="16" height="16" viewBox="0 0 16 16">
 <defs>
  <style type="text/css" id="current-color-scheme">
   .ColorScheme-Text { color:#d3dae3; }
  </style>
 </defs>
 <path style="fill:currentColor;opacity:1" class="ColorScheme-Text" d="M 2 2 A 1.0001 1.0001 0 0 0 1 3 L 1 4 A 1.0001 1.0001 0 0 0 2 5 L 5 5 L 5 11 L 2 11 A 1.0001 1.0001 0 0 0 1 12 L 1 13 A 1.0001 1.0001 0 0 0 2 14 L 7 14 A 1.0001 1.0001 0 0 0 8 13 L 8 10 L 10 10 L 10 12 L 15 8 L 10 4 L 10 6 L 8 6 L 8 3 A 1.0001 1.0001 0 0 0 7 2 L 2 2 z"/>
</svg>
